src/main/resources/icons/AllIcons/actions/menu-cut.svg

<!-- Copyright 2000-2021 JetBrains s.r.o. Use of this source code is governed by the Apache 2.0 license that can be found in the LICENSE file. -->
<svg xmlns="http://www.w3.org/2000/svg" width="16" height="16" viewBox="0 0 16 16">
  <path fill="#6E6E6E" d="M6.53206047,5.10906 C6.68535547,4.77581 6.77200047,4.40923501 6.77200047,4.01600001 C6.77200047,2.54303502 5.57896548,1.35000002 4.10600049,1.35000002 C2.63303549,1.35000002 1.4400005,2.54303502 1.4400005,4.01600001 C1.4400005,5.488965 2.63303549,6.68199999 4.10600049,6.68199999 C4.49923548,6.68199999 4.86581048,6.59535499 5.19906048,6.44205999 L6.77200047,8.01499999 L5.19906048,9.58793998 C4.86581048,9.43464498 4.49923548,9.34799998 4.10600049,9.34799998 C2.63303549,9.34799998 1.4400005,10.541035 1.4400005,12.014 C1.4400005,13.486965 2.63303549,14.6799999 4.10600049,14.6799999 C5.57896548,14.6799999 6.77200047,13.486965 6.77200047,12.014 C6.77200047,11.620765 6.68535547,11.25419 6.53206047,10.92094 L8.10500046,9.34799998 L12.7705004,14 L14.7700004,14 L14.7700004,13.347 L6.53206047,5.10906 Z M4.1053342,5.33702364 C3.37236745,5.33702364 2.77266738,4.74383861 2.77266738,4.00402356 C2.77266738,3.26420851 3.37236745,2.67102348 4.1053342,2.67102348 C4.83830096,2.67102348 5.43800103,3.26420851 5.43800103,4.00402356 C5.43800103,4.74383861 4.83830096,5.33702364 4.1053342,5.33702364 Z M4.1053342,13.3350241 C3.37236745,13.3350241 2.77266738,12.7418391 2.77266738,12.0020241 C2.77266738,11.262209 3.37236745,10.669024 4.1053342,10.669024 C4.83830096,10.669024 5.43800103,11.262209 5.43800103,12.0020241 C5.43800103,12.7418391 4.83830096,13.3350241 4.1053342,13.3350241 Z M8.10333468,8.33627383 C7.91676132,8.33627383 7.77016797,8.18964382 7.77016797,8.00302381 C7.77016797,7.8164038 7.91676132,7.66977379 8.10333468,7.66977379 C8.28990803,7.66977379 8.43650138,7.8164038 8.43650138,8.00302381 C8.43650138,8.18964382 8.28990803,8.33627383 8.10333468,8.33627383 Z M12.7710002,2.00452344 L8.77299971,6.00352368 L10.1056665,7.33652377 L14.7700004,2.67102348 L14.7700004,2.00452344 L12.7710002,2.00452344 Z"/>
</svg>

<svg xmlns="http://www.w3.org/2000/svg" width="16" height="16" viewBox="0 0 16 16"><rect id="frame" width="16" height="16" fill="none"/><path fill="#6E6E6E" d="M6.532 5.11c.153-.334.24-.7.24-1.094a2.665 2.665 0 1 0-5.332 0 2.665 2.665 0 0 0 2.666 2.666c.393 0 .76-.087 1.093-.24l1.573 1.573-1.573 1.573c-.333-.153-.7-.24-1.093-.24a2.665 2.665 0 1 0 0 5.332 2.665 2.665 0 0 0 2.666-2.666c0-.393-.087-.76-.24-1.093l1.573-1.573L12.771 14h1.999v-.653L6.532 5.109zm-2.427.227a1.332 1.332 0 1 1 0-2.665 1.332 1.332 0 0 1 0 2.665zm0 7.998a1.332 1.332 0 1 1 0-2.665 1.332 1.332 0 0 1 0 2.665zm3.998-4.999a.33.33 0 0 1-.333-.333.33.33 0 0 1 .333-.333.33.33 0 0 1 .334.333.33.33 0 0 1-.334.333zm4.668-6.331L8.773 6.004l1.333 1.333L14.77 2.67v-.666h-1.999z"/></svg>
